SVG/quote-right.svg

<?xml version="1.0" encoding="utf-8"?>
<!-- Generated by IcoMoon.io -->
<!DOCTYPE svg PUBLIC "-//W3C//DTD SVG 1.1//EN" "http://www.w3.org/Graphics/SVG/1.1/DTD/svg11.dtd">
<svg version="1.1" xmlns="http://www.w3.org/2000/svg" xmlns:xlink="http://www.w3.org/1999/xlink" width="13" height="14" viewBox="0 0 13 14">
<path fill="#444444" d="M6 2.5v5.5q0 0.813-0.316 1.551t-0.855 1.277-1.277 0.855-1.551 0.316h-0.5q-0.203 0-0.352-0.148t-0.148-0.352v-1q0-0.203 0.148-0.352t0.352-0.148h0.5q0.828 0 1.414-0.586t0.586-1.414v-0.25q0-0.312-0.219-0.531t-0.531-0.219h-1.75q-0.625 0-1.062-0.438t-0.438-1.062v-3q0-0.625 0.438-1.062t1.062-0.438h3q0.625 0 1.062 0.438t0.438 1.062zM13 2.5v5.5q0 0.813-0.316 1.551t-0.855 1.277-1.277 0.855-1.551 0.316h-0.5q-0.203 0-0.352-0.148t-0.148-0.352v-1q0-0.203 0.148-0.352t0.352-0.148h0.5q0.828 0 1.414-0.586t0.586-1.414v-0.25q0-0.312-0.219-0.531t-0.531-0.219h-1.75q-0.625 0-1.062-0.438t-0.438-1.062v-3q0-0.625 0.438-1.062t1.062-0.438h3q0.625 0 1.062 0.438t0.438 1.062z"></path>
</svg>

<svg xmlns="http://www.w3.org/2000/svg" viewBox="0 0 13 14"><path d="M6 2.5V8q0 .813-.316 1.55T4.83 10.83t-1.278.855-1.55.316h-.5q-.204 0-.353-.15T1 11.5v-1q0-.204.15-.353T1.5 10H2q.83 0 1.415-.587T4 8v-.25q0-.313-.218-.532t-.53-.22H1.5Q.875 7 .438 6.562T0 5.5v-3q0-.626.44-1.063T1.5 1h3q.626 0 1.063.437T6 2.5zm7 0V8q0 .813-.316 1.55t-.855 1.278-1.278.855-1.55.316h-.5q-.204 0-.353-.15T8 11.5v-1q0-.204.15-.353T8.5 10H9q.83 0 1.415-.587T11 8v-.25q0-.313-.218-.532t-.53-.22H8.5q-.626 0-1.063-.437T7 5.5v-3q0-.626.44-1.063T8.5 1h3q.626 0 1.063.437T13 2.5z" /></svg>
